; generated by Slic3r 1.2.9 on 2017-06-16 at 23:11:15

; external perimeters extrusion width = 0.45mm
; perimeters extrusion width = 0.45mm
; infill extrusion width = 0.45mm
; solid infill extrusion width = 0.45mm
; top infill extrusion width = 0.40mm

M107
M115 U3.0.11 ; tell printer latest fw version
M83  ; extruder relative mode
M104 S215 ; set extruder temp
M140 S55 ; set bed temp
M190 S55 ; wait for bed temp
M109 S215 ; wait for extruder temp
G28 W ; home all without mesh bed level
G80 ; mesh bed leveling
G1 Y-3.0 F1000.0 ; go outside pritn area
G1 X60.0 E9.0  F1000.0 ; intro line
G1 X100.0 E12.5  F1000.0 ; intro line
G21 ; set units to millimeters
G90 ; use absolute coordinates
M83 ; use relative distances for extrusion
G1 E-0.80000 F2100.00000
G1 Z0.500 F7200.000
G1 X90.902 Y92.796 F7200.000
G1 Z0.200 F7200.000
G1 E0.80000 F2100.00000
M204 S1000
G1 X91.334 Y92.410 E0.01818 F1961.267
G1 X91.768 Y92.086 E0.01699
G1 X92.157 Y91.844 E0.01435
G1 X92.672 Y91.581 E0.01814
G1 X93.203 Y91.373 E0.01789
G1 X93.791 Y91.208 E0.01915
G1 X94.454 Y91.103 E0.02103
G1 X94.862 Y91.080 E0.01283
G1 X104.998 Y91.077 E0.31779
G1 X105.448 Y91.096 E0.01413
G1 X106.212 Y91.209 E0.02423
G1 X106.975 Y91.434 E0.02493
G1 X107.535 Y91.678 E0.01916
G1 X107.996 Y91.933 E0.01653
G1 X108.234 Y92.087 E0.00887
G1 X108.851 Y92.567 E0.02450
G1 X109.098 Y92.796 E0.01058
G1 X109.496 Y93.219 E0.01819
G1 X109.900 Y93.736 E0.02059
G1 X110.170 Y94.141 E0.01527
G1 X110.398 Y94.534 E0.01424
G1 X110.653 Y95.042 E0.01781
G1 X110.840 Y95.478 E0.01487
G1 X111.096 Y96.200 E0.02403
G1 X111.227 Y96.657 E0.01490
G1 X111.361 Y97.232 E0.01853
G1 X111.480 Y97.908 E0.02149
G1 X111.553 Y98.517 E0.01925
G1 X111.596 Y99.142 E0.01963
G1 X111.597 Y100.166 E0.03211
G1 X111.536 Y101.012 E0.02659
G1 X111.467 Y101.541 E0.01674
G1 X111.343 Y102.223 E0.02173
G1 X111.144 Y103.011 E0.02550
G1 X110.863 Y103.833 E0.02724
G1 X110.622 Y104.394 E0.01913
G1 X110.383 Y104.859 E0.01640
G1 X110.016 Y105.465 E0.02220
G1 X109.729 Y105.864 E0.01542
G1 X109.442 Y106.209 E0.01409
G1 X109.031 Y106.636 E0.01857
G1 X108.468 Y107.114 E0.02317
G1 X107.974 Y107.448 E0.01868
G1 X107.384 Y107.763 E0.02098
G1 X106.842 Y107.981 E0.01829
G1 X106.275 Y108.143 E0.01851
G1 X105.628 Y108.255 E0.02059
G1 X105.004 Y108.291 E0.01958
G1 X94.996 Y108.291 E0.31380
G1 X94.556 Y108.272 E0.01379
G1 X93.985 Y108.197 E0.01807
G1 X93.247 Y108.011 E0.02387
G1 X92.616 Y107.763 E0.02123
G1 X91.952 Y107.400 E0.02374
G1 X91.532 Y107.114 E0.01592
G1 X91.156 Y106.806 E0.01526
G1 X90.632 Y106.293 E0.02299
G1 X90.272 Y105.865 E0.01752
G1 X90.053 Y105.566 E0.01162
G1 X89.617 Y104.859 E0.02605
G1 X89.378 Y104.394 E0.01640
G1 X89.135 Y103.830 E0.01924
G1 X88.855 Y103.006 E0.02729
G1 X88.693 Y102.383 E0.02018
G1 X88.558 Y101.701 E0.02181
G1 X88.448 Y100.856 E0.02670
G1 X88.403 Y100.166 E0.02170
G1 X88.394 Y99.619 E0.01714
G1 X88.447 Y98.518 E0.03456
G1 X88.521 Y97.896 E0.01965
G1 X88.628 Y97.280 E0.01958
G1 X88.773 Y96.655 E0.02012
G1 X88.904 Y96.200 E0.01486
G1 X89.103 Y95.623 E0.01915
G1 X89.283 Y95.184 E0.01484
G1 X89.528 Y94.671 E0.01784
G1 X89.784 Y94.217 E0.01634
G1 X90.218 Y93.575 E0.02431
G1 X90.505 Y93.219 E0.01432
G1 X90.859 Y92.839 E0.01630
G1 X91.159 Y93.071 F7200.000
G1 X91.565 Y92.708 E0.01707 F1961.267
G1 X91.974 Y92.402 E0.01602
G1 X92.337 Y92.175 E0.01341
G1 X92.818 Y91.929 E0.01695
G1 X93.314 Y91.733 E0.01672
G1 X93.876 Y91.576 E0.01832
G1 X94.487 Y91.479 E0.01940
G1 X94.881 Y91.457 E0.01237
G1 X104.998 Y91.454 E0.31719
G1 X105.428 Y91.473 E0.01349
G1 X106.127 Y91.577 E0.02218
G1 X106.840 Y91.786 E0.02329
G1 X107.361 Y92.013 E0.01781
G1 X107.795 Y92.252 E0.01555
G1 X108.028 Y92.403 E0.00870
G1 X108.594 Y92.844 E0.02250
G1 X108.840 Y93.071 E0.01051
G1 X109.214 Y93.469 E0.01710
G1 X109.588 Y93.948 E0.01904
G1 X109.849 Y94.338 E0.01474
G1 X110.071 Y94.722 E0.01391
G1 X110.314 Y95.207 E0.01701
G1 X110.493 Y95.623 E0.01420
G1 X110.734 Y96.304 E0.02264
G1 X110.864 Y96.758 E0.01480
G1 X110.994 Y97.316 E0.01796
G1 X111.115 Y98.018 E0.02234
G1 X111.178 Y98.551 E0.01684
G1 X111.219 Y99.157 E0.01903
G1 X111.220 Y100.159 E0.03144
G1 X111.162 Y100.963 E0.02526
G1 X111.094 Y101.492 E0.01674
G1 X110.973 Y102.152 E0.02102
G1 X110.783 Y102.902 E0.02425
G1 X110.513 Y103.694 E0.02623
G1 X110.281 Y104.232 E0.01839
G1 X110.048 Y104.686 E0.01598
G1 X109.702 Y105.257 E0.02093
G1 X109.432 Y105.631 E0.01448
G1 X109.153 Y105.967 E0.01370
G1 X108.764 Y106.369 E0.01753
G1 X108.242 Y106.812 E0.02146
G1 X107.776 Y107.127 E0.01766
G1 X107.229 Y107.419 E0.01943
G1 X106.722 Y107.623 E0.01712
G1 X106.181 Y107.778 E0.01766
G1 X105.582 Y107.881 E0.01904
G1 X105.004 Y107.914 E0.01816
G1 X94.996 Y107.914 E0.31380
G1 X94.577 Y107.895 E0.01316
G1 X94.043 Y107.824 E0.01686
G1 X93.367 Y107.653 E0.02189
G1 X92.771 Y107.419 E0.02006
G1 X92.160 Y107.086 E0.02182
G1 X91.758 Y106.812 E0.01527
G1 X91.397 Y106.516 E0.01463
G1 X90.911 Y106.040 E0.02133
G1 X90.569 Y105.633 E0.01667
G1 X90.359 Y105.345 E0.01118
G1 X89.952 Y104.686 E0.02428
G1 X89.719 Y104.232 E0.01599
G1 X89.486 Y103.691 E0.01849
G1 X89.215 Y102.897 E0.02629
G1 X89.058 Y102.290 E0.01965
G1 X88.928 Y101.630 E0.02108
G1 X88.824 Y100.829 E0.02534
G1 X88.780 Y100.159 E0.02104
G1 X88.771 Y99.613 E0.01713
G1 X88.822 Y98.552 E0.03330
G1 X88.894 Y97.950 E0.01900
G1 X88.997 Y97.357 E0.01887
G1 X89.136 Y96.757 E0.01934
G1 X89.266 Y96.304 E0.01476
G1 X89.459 Y95.749 E0.01843
G1 X89.630 Y95.330 E0.01417
G1 X89.865 Y94.840 E0.01704
G1 X90.111 Y94.405 E0.01567
G1 X90.515 Y93.808 E0.02260
G1 X90.787 Y93.469 E0.01362
G1 X91.117 Y93.114 E0.01521
G1 F5760
G1 X91.565 Y92.708 E-0.20931
G1 F5760
G1 X91.974 Y92.402 E-0.17699
G1 F5760
G1 X92.337 Y92.175 E-0.14817
G1 F5760
G1 X92.818 Y91.929 E-0.18724
G1 F5760
G1 X92.921 Y91.888 E-0.03828
G1 E-0.04000 F2100.00000
G1 Z0.700 F7200.000
G1 X96.537 Y103.875 F7200.000
G1 Z0.200 F7200.000
G1 E0.80000 F2100.00000
G1 X96.326 Y104.066 E0.00894 F900.000
G1 X95.995 Y104.298 E0.01268
G1 X95.819 Y104.388 E0.00620
G1 X95.502 Y104.503 E0.01058
G1 X95.339 Y104.540 E0.00521
G1 X94.982 Y104.571 E0.01126
G1 X94.611 Y104.531 E0.01169
G1 X94.425 Y104.482 E0.00601
G1 X94.153 Y104.375 E0.00917
G1 X93.975 Y104.280 E0.00634
G1 X93.758 Y104.134 E0.00820
G1 X93.393 Y103.800 E0.01551
G1 X93.075 Y103.396 E0.01613
G1 X92.905 Y103.122 E0.01011
G1 X92.740 Y102.804 E0.01122
G1 X92.594 Y102.463 E0.01165
G1 X92.416 Y101.935 E0.01747
G1 X92.304 Y101.495 E0.01423
G1 X92.216 Y101.035 E0.01467
G1 X92.155 Y100.561 E0.01499
G1 X92.120 Y100.077 E0.01521
G1 X92.112 Y99.593 E0.01518
G1 X92.150 Y98.855 E0.02317
G1 X92.199 Y98.447 E0.01288
G1 X92.366 Y97.616 E0.02657
G1 X92.466 Y97.267 E0.01139
G1 X92.708 Y96.634 E0.02124
G1 X92.842 Y96.359 E0.00963
G1 X93.150 Y95.864 E0.01825
G1 X93.481 Y95.475 E0.01602
G1 X93.812 Y95.195 E0.01361
G1 X94.169 Y94.985 E0.01298
G1 X94.332 Y94.917 E0.00552
G1 X94.619 Y94.835 E0.00938
G1 X94.785 Y94.809 E0.00525
G1 X95.116 Y94.804 E0.01039
G1 X95.405 Y94.841 E0.00911
G1 X95.583 Y94.888 E0.00579
G1 X95.965 Y95.053 E0.01304
G1 X96.148 Y95.166 E0.00676
G1 X96.376 Y95.342 E0.00901
G1 X96.552 Y95.508 E0.00758
G1 X96.749 Y95.732 E0.00936
G1 X96.952 Y96.013 E0.01088
G1 X97.260 Y96.564 E0.01980
G1 X97.407 Y96.907 E0.01168
G1 X97.572 Y97.393 E0.01610
G1 X97.683 Y97.813 E0.01362
G1 X97.773 Y98.267 E0.01452
G1 X97.838 Y98.746 E0.01515
G1 X97.876 Y99.213 E0.01468
G1 X97.888 Y99.808 E0.01867
G1 X97.869 Y100.279 E0.01479
G1 X97.762 Y101.161 E0.02783
G1 X97.598 Y101.886 E0.02333
G1 X97.469 Y102.288 E0.01321
G1 X97.218 Y102.890 E0.02045
G1 X97.069 Y103.167 E0.00987
G1 X96.870 Y103.476 E0.01152
G1 X96.577 Y103.830 E0.01441
G1 X96.804 Y104.141 F7200.000
G1 X96.569 Y104.355 E0.00997 F900.000
G1 X96.183 Y104.625 E0.01477
G1 X95.970 Y104.735 E0.00751
G1 X95.608 Y104.866 E0.01207
G1 X95.397 Y104.914 E0.00678
G1 X94.987 Y104.948 E0.01290
G1 X94.757 Y104.936 E0.00724
G1 X94.308 Y104.841 E0.01437
G1 X93.995 Y104.718 E0.01055
G1 X93.780 Y104.604 E0.00763
G1 X93.531 Y104.436 E0.00941
G1 X93.311 Y104.252 E0.00899
G1 X93.110 Y104.051 E0.00891
G1 X92.766 Y103.613 E0.01748
G1 X92.576 Y103.309 E0.01123
G1 X92.399 Y102.965 E0.01212
G1 X92.241 Y102.597 E0.01255
G1 X92.054 Y102.042 E0.01838
G1 X91.935 Y101.577 E0.01504
G1 X91.844 Y101.095 E0.01539
G1 X91.780 Y100.599 E0.01567
G1 X91.743 Y100.094 E0.01588
G1 X91.735 Y99.586 E0.01591
G1 X91.774 Y98.823 E0.02397
G1 X91.827 Y98.388 E0.01375
G1 X91.999 Y97.527 E0.02752
G1 X92.108 Y97.148 E0.01238
G1 X92.361 Y96.484 E0.02227
G1 X92.509 Y96.182 E0.01055
G1 X92.849 Y95.636 E0.02016
G1 X93.208 Y95.214 E0.01738
G1 X93.600 Y94.881 E0.01611
G1 X94.000 Y94.647 E0.01453
G1 X94.207 Y94.561 E0.00702
G1 X94.538 Y94.466 E0.01081
G1 X94.753 Y94.433 E0.00681
G1 X95.137 Y94.427 E0.01204
G1 X95.476 Y94.469 E0.01072
G1 X95.697 Y94.528 E0.00716
G1 X96.148 Y94.722 E0.01538
G1 X96.363 Y94.856 E0.00795
G1 X96.621 Y95.055 E0.01020
G1 X96.823 Y95.245 E0.00871
G1 X97.044 Y95.496 E0.01048
G1 X97.266 Y95.804 E0.01189
G1 X97.431 Y96.073 E0.00989
G1 X97.602 Y96.404 E0.01167
G1 X97.759 Y96.771 E0.01255
G1 X97.934 Y97.284 E0.01698
G1 X98.051 Y97.728 E0.01441
G1 X98.145 Y98.205 E0.01523
G1 X98.213 Y98.705 E0.01584
G1 X98.253 Y99.194 E0.01537
G1 X98.265 Y99.812 E0.01938
G1 X98.245 Y100.305 E0.01546
G1 X98.133 Y101.230 E0.02923
G1 X97.962 Y101.986 E0.02430
G1 X97.823 Y102.418 E0.01423
G1 X97.559 Y103.052 E0.02152
G1 X97.395 Y103.359 E0.01093
G1 X97.178 Y103.694 E0.01250
G1 X96.844 Y104.097 E0.01642
G1 X97.071 Y104.408 F7200.000
G1 X96.811 Y104.645 E0.01101 F900.000
G1 X96.371 Y104.953 E0.01686
G1 X96.121 Y105.081 E0.00881
G1 X95.714 Y105.229 E0.01356
G1 X95.455 Y105.287 E0.00834
G1 X94.993 Y105.326 E0.01454
G1 X94.717 Y105.311 E0.00867
G1 X94.456 Y105.270 E0.00827
G1 X94.191 Y105.200 E0.00860
G1 X93.837 Y105.061 E0.01194
G1 X93.586 Y104.927 E0.00892
G1 X93.305 Y104.738 E0.01062
G1 X93.056 Y104.531 E0.01014
G1 X92.828 Y104.302 E0.01015
G1 X92.456 Y103.830 E0.01883
G1 X92.248 Y103.495 E0.01235
G1 X92.058 Y103.126 E0.01302
G1 X91.889 Y102.732 E0.01345
G1 X91.692 Y102.149 E0.01930
G1 X91.567 Y101.659 E0.01586
G1 X91.471 Y101.154 E0.01610
G1 X91.404 Y100.637 E0.01636
G1 X91.366 Y100.111 E0.01654
G1 X91.357 Y99.580 E0.01664
G1 X91.399 Y98.791 E0.02477
G1 X91.454 Y98.328 E0.01461
G1 X91.632 Y97.438 E0.02847
G1 X91.750 Y97.028 E0.01336
G1 X92.015 Y96.334 E0.02330
G1 X92.351 Y95.700 E0.02248
G1 X92.548 Y95.408 E0.01108
G1 X92.936 Y94.952 E0.01875
G1 X93.156 Y94.749 E0.00940
G1 X93.389 Y94.568 E0.00923
G1 X93.831 Y94.309 E0.01608
G1 X94.082 Y94.204 E0.00852
G1 X94.457 Y94.097 E0.01225
G1 X94.721 Y94.056 E0.00837
G1 X95.158 Y94.050 E0.01370
G1 X95.548 Y94.098 E0.01234
G1 X95.812 Y94.168 E0.00854
G1 X96.074 Y94.266 E0.00877
G1 X96.331 Y94.392 E0.00898
G1 X96.578 Y94.545 E0.00914
G1 X96.866 Y94.768 E0.01139
G1 X97.094 Y94.983 E0.00985
G1 X97.339 Y95.261 E0.01161
G1 X97.580 Y95.594 E0.01290
G1 X97.760 Y95.887 E0.01078
G1 X97.943 Y96.243 E0.01254
G1 X98.111 Y96.636 E0.01342
G1 X98.295 Y97.175 E0.01785
G1 X98.418 Y97.644 E0.01519
G1 X98.517 Y98.143 E0.01595
G1 X98.588 Y98.665 E0.01652
G1 X98.630 Y99.175 E0.01606
G1 X98.642 Y99.816 E0.02010
G1 X98.621 Y100.330 E0.01612
G1 X98.576 Y100.814 E0.01526
G1 X98.504 Y101.299 E0.01538
G1 X98.326 Y102.085 E0.02527
G1 X98.177 Y102.548 E0.01525
G1 X97.900 Y103.214 E0.02259
G1 X97.720 Y103.550 E0.01198
G1 X97.487 Y103.912 E0.01348
G1 X97.111 Y104.364 E0.01843
G1 X96.732 Y104.317 F7200.000
G1 F5760
G1 X96.811 Y104.645 E-0.14233
G1 F5760
G1 X96.371 Y104.953 E-0.18621
G1 F5760
G1 X96.121 Y105.081 E-0.09731
G1 F5760
G1 X95.714 Y105.229 E-0.14980
G1 F5760
G1 X95.455 Y105.287 E-0.09211
G1 F5760
G1 X95.189 Y105.310 E-0.09224
G1 E-0.04000 F2100.00000
G1 Z0.700 F7200.000
G1 X93.993 Y104.000 F7200.000
G1 Z0.200 F7200.000
G1 E0.80000 F2100.00000
G1 X93.402 Y103.408 E0.02755 F1569.013
G1 F5760
G1 X93.993 Y104.000 E-0.28977
G1 E-0.51023 F2100.00000
G1 Z0.700 F7200.000
G1 X92.717 Y102.164 F7200.000
G1 Z0.200 F7200.000
G1 E0.80000 F2100.00000
G1 X94.925 Y104.372 E0.10280 F1569.013
G1 X95.456 Y104.342 E0.01750
G1 X92.483 Y101.370 E0.13841
G1 X92.368 Y100.694 E0.02258
G1 X95.864 Y104.191 E0.16281
G1 X96.202 Y103.968 E0.01331
G1 X92.309 Y100.076 E0.18126
G1 X92.296 Y99.502 E0.01889
G1 X96.482 Y103.689 E0.19494
G1 X96.744 Y103.391 E0.01306
G1 X92.323 Y98.970 E0.20585
G1 X92.373 Y98.459 E0.01689
G1 X96.959 Y103.046 E0.21356
G1 X97.140 Y102.666 E0.01384
G1 X92.463 Y97.989 E0.21778
G1 X92.561 Y97.528 E0.01554
G1 X97.304 Y102.271 E0.22083
G1 X97.436 Y101.843 E0.01474
G1 X92.699 Y97.105 E0.22060
G1 X92.853 Y96.700 E0.01428
G1 X97.540 Y101.386 E0.21822
G1 X97.618 Y100.905 E0.01607
G1 X93.041 Y96.328 E0.21312
G1 X93.256 Y95.983 E0.01339
G1 X97.678 Y100.405 E0.20592
G1 X97.705 Y99.871 E0.01760
G1 X93.515 Y95.682 E0.19507
G1 X93.795 Y95.402 E0.01304
G1 X97.693 Y99.300 E0.18150
G1 X97.633 Y98.680 E0.02050
G1 X94.136 Y95.182 E0.16286
G1 X94.541 Y95.028 E0.01429
G1 X97.517 Y98.004 E0.13856
G1 X97.286 Y97.213 E0.02711
G1 X95.066 Y94.993 E0.10337
G1 X95.995 Y95.361 F7200.000
G1 X96.650 Y96.017 E0.03051 F1569.013
G1 F5760
G1 X95.995 Y95.361 E-0.32098
G1 E-0.47902 F2100.00000
G1 Z0.700 F7200.000
G1 X102.510 Y102.232 F7200.000
G1 Z0.200 F7200.000
G1 E0.80000 F2100.00000
G1 X102.326 Y101.587 E0.02103 F900.000
G1 X102.193 Y100.856 E0.02332
G1 X102.131 Y100.273 E0.01836
G1 X102.118 Y99.358 E0.02871
G1 X102.162 Y98.742 E0.01936
G1 X102.227 Y98.267 E0.01503
G1 X102.317 Y97.813 E0.01452
G1 X102.428 Y97.390 E0.01371
G1 X102.566 Y96.977 E0.01367
G1 X102.738 Y96.567 E0.01392
G1 X102.897 Y96.258 E0.01091
G1 X103.068 Y95.980 E0.01021
G1 X103.249 Y95.735 E0.00956
G1 X103.448 Y95.508 E0.00948
G1 X103.627 Y95.340 E0.00769
G1 X103.819 Y95.189 E0.00765
G1 X104.038 Y95.051 E0.00812
G1 X104.417 Y94.888 E0.01294
G1 X104.788 Y94.809 E0.01188
G1 X105.112 Y94.804 E0.01017
G1 X105.399 Y94.840 E0.00906
G1 X105.668 Y94.917 E0.00877
G1 X105.834 Y94.987 E0.00564
G1 X106.189 Y95.196 E0.01294
G1 X106.519 Y95.475 E0.01355
G1 X106.851 Y95.865 E0.01604
G1 X107.152 Y96.350 E0.01791
G1 X107.406 Y96.905 E0.01915
G1 X107.531 Y97.256 E0.01168
G1 X107.636 Y97.623 E0.01196
G1 X107.802 Y98.453 E0.02652
G1 X107.850 Y98.855 E0.01271
G1 X107.888 Y99.593 E0.02317
G1 X107.880 Y100.077 E0.01518
G1 X107.845 Y100.558 E0.01511
G1 X107.784 Y101.035 E0.01510
G1 X107.696 Y101.496 E0.01471
G1 X107.583 Y101.939 E0.01434
G1 X107.406 Y102.463 E0.01732
G1 X107.260 Y102.804 E0.01165
G1 X107.095 Y103.122 E0.01122
G1 X106.925 Y103.396 E0.01011
G1 X106.607 Y103.800 E0.01612
G1 X106.242 Y104.134 E0.01550
G1 X106.025 Y104.280 E0.00821
G1 X105.847 Y104.375 E0.00634
G1 X105.575 Y104.482 E0.00917
G1 X105.389 Y104.531 E0.00601
G1 X105.018 Y104.571 E0.01169
G1 X104.661 Y104.540 E0.01126
G1 X104.498 Y104.504 E0.00521
G1 X104.181 Y104.388 E0.01058
G1 X104.005 Y104.298 E0.00620
G1 X103.674 Y104.066 E0.01269
G1 X103.463 Y103.875 E0.00891
G1 X103.289 Y103.683 E0.00812
G1 X102.976 Y103.243 E0.01694
G1 X102.774 Y102.874 E0.01321
G1 X102.531 Y102.288 E0.01987
G1 X102.151 Y102.350 F7200.000
G1 X101.958 Y101.673 E0.02208 F900.000
G1 X101.819 Y100.909 E0.02434
G1 X101.755 Y100.301 E0.01918
G1 X101.735 Y99.810 E0.01541
G1 X101.741 Y99.342 E0.01467
G1 X101.787 Y98.703 E0.02009
G1 X101.855 Y98.205 E0.01576
G1 X101.949 Y97.728 E0.01523
G1 X102.067 Y97.282 E0.01446
G1 X102.213 Y96.844 E0.01450
G1 X102.396 Y96.408 E0.01482
G1 X102.569 Y96.073 E0.01182
G1 X102.755 Y95.770 E0.01115
G1 X102.955 Y95.498 E0.01057
G1 X103.177 Y95.245 E0.01056
G1 X103.381 Y95.053 E0.00878
G1 X103.602 Y94.880 E0.00880
G1 X103.854 Y94.721 E0.00935
G1 X104.076 Y94.612 E0.00775
G1 X104.532 Y94.467 E0.01502
G1 X104.756 Y94.432 E0.00709
G1 X105.133 Y94.427 E0.01182
G1 X105.474 Y94.470 E0.01079
G1 X105.793 Y94.560 E0.01040
G1 X106.003 Y94.649 E0.00714
G1 X106.401 Y94.883 E0.01448
G1 X106.792 Y95.214 E0.01605
G1 X107.151 Y95.636 E0.01739
G1 X107.324 Y95.892 E0.00969
G1 X107.488 Y96.177 E0.01030
G1 X107.756 Y96.764 E0.02022
G1 X107.890 Y97.141 E0.01256
G1 X108.003 Y97.534 E0.01282
G1 X108.174 Y98.393 E0.02747
G1 X108.226 Y98.823 E0.01357
G1 X108.265 Y99.586 E0.02397
G1 X108.257 Y100.094 E0.01591
