; generated by Slic3r 1.2.9 on 2017-06-15 at 21:21:52

; external perimeters extrusion width = 0.45mm
; perimeters extrusion width = 0.45mm
; infill extrusion width = 0.45mm
; solid infill extrusion width = 0.45mm
; top infill extrusion width = 0.40mm

; external perimeters extrusion width = 0.45mm
; perimeters extrusion width = 0.45mm
; infill extrusion width = 0.45mm
; solid infill extrusion width = 0.45mm
; top infill extrusion width = 0.40mm

; external perimeters extrusion width = 0.45mm
; perimeters extrusion width = 0.45mm
; infill extrusion width = 0.45mm
; solid infill extrusion width = 0.45mm
; top infill extrusion width = 0.40mm

; external perimeters extrusion width = 0.45mm
; perimeters extrusion width = 0.45mm
; infill extrusion width = 0.45mm
; solid infill extrusion width = 0.45mm
; top infill extrusion width = 0.40mm

M107
M115 U3.0.11 ; tell printer latest fw version
M83  ; extruder relative mode
M104 S215 ; set extruder temp
M140 S55 ; set bed temp
M190 S55 ; wait for bed temp
M109 S215 ; wait for extruder temp
G28 W ; home all without mesh bed level
G80 ; mesh bed leveling
G1 Y-3.0 F1000.0 ; go outside pritn area
G1 X60.0 E9.0  F1000.0 ; intro line
G1 X100.0 E12.5  F1000.0 ; intro line
G21 ; set units to millimeters
G90 ; use absolute coordinates
M83 ; use relative distances for extrusion
T0
G1 E-0.80000 F2100.00000
G1 Z0.500 F7200.000
G1 X71.887 Y89.611 F7200.000
G1 Z0.200 F7200.000
G1 E0.80000 F2100.00000
M204 S1000
G1 X72.083 Y89.474 E0.00748 F2100.000
G1 X72.743 Y89.085 E0.02404
G1 X73.308 Y88.828 E0.01944
G1 X73.930 Y88.611 E0.02067
G1 X74.281 Y88.516 E0.01138
G1 X74.899 Y88.397 E0.01975
G1 X75.383 Y88.345 E0.01525
G1 X76.168 Y88.293 E0.02469
G1 X98.873 Y86.912 E0.71319
G1 X99.757 Y86.882 E0.02776
G1 X100.359 Y86.882 E0.01887
G1 X101.230 Y86.913 E0.02732
G1 X102.480 Y87.030 E0.03935
G1 X103.914 Y87.262 E0.04556
G1 X105.009 Y87.511 E0.03522
G1 X106.319 Y87.896 E0.04279
G1 X106.943 Y88.113 E0.02072
G1 X107.627 Y88.379 E0.02301
G1 X108.289 Y88.668 E0.02268
G1 X109.003 Y89.009 E0.02478
G1 X109.755 Y89.410 E0.02674
G1 X110.364 Y89.769 E0.02215
G1 X110.954 Y90.133 E0.02176
G1 X111.511 Y90.513 E0.02113
G1 X112.760 Y91.468 E0.04928
G1 X113.843 Y92.439 E0.04561
G1 X114.603 Y93.211 E0.03399
G1 X115.242 Y93.929 E0.03012
G1 X115.768 Y94.579 E0.02622
G1 X116.588 Y95.713 E0.04390
G1 X117.244 Y96.770 E0.03898
G1 X117.571 Y97.407 E0.02247
G1 X117.715 Y97.758 E0.01188
G1 X117.920 Y98.377 E0.02043
G1 X117.989 Y98.672 E0.00951
G1 X118.052 Y98.996 E0.01034
G1 X118.121 Y99.639 E0.02029
G1 X118.131 Y100.158 E0.01626
G1 X118.076 Y100.797 E0.02011
G1 X117.937 Y101.525 E0.02325
G1 X117.833 Y101.896 E0.01206
G1 X117.636 Y102.434 E0.01797
G1 X117.278 Y103.171 E0.02567
G1 X116.566 Y104.314 E0.04225
G1 X115.955 Y105.178 E0.03317
G1 X115.465 Y105.801 E0.02484
G1 X114.966 Y106.389 E0.02417
G1 X114.381 Y107.024 E0.02709
G1 X113.796 Y107.603 E0.02578
G1 X113.252 Y108.105 E0.02323
G1 X112.435 Y108.793 E0.03348
G1 X111.625 Y109.400 E0.03174
G1 X111.010 Y109.823 E0.02340
G1 X110.292 Y110.279 E0.02668
G1 X109.112 Y110.929 E0.04224
G1 X108.372 Y111.288 E0.02577
G1 X107.505 Y111.663 E0.02962
G1 X106.343 Y112.093 E0.03886
G1 X105.443 Y112.369 E0.02951
G1 X104.196 Y112.679 E0.04030
G1 X103.399 Y112.829 E0.02540
G1 X101.699 Y113.045 E0.05374
G1 X100.524 Y113.106 E0.03689
G1 X99.855 Y113.113 E0.02099
G1 X99.143 Y113.094 E0.02232
G1 X75.390 Y111.650 E0.74613
G1 X75.035 Y111.617 E0.01119
G1 X74.484 Y111.525 E0.01752
G1 X74.113 Y111.435 E0.01196
G1 X73.690 Y111.307 E0.01386
G1 X73.174 Y111.115 E0.01727
G1 X72.432 Y110.744 E0.02602
G1 X71.739 Y110.277 E0.02618
G1 X71.368 Y109.964 E0.01521
G1 X70.956 Y109.568 E0.01792
G1 X70.629 Y109.192 E0.01562
G1 X70.402 Y108.895 E0.01170
G1 X70.082 Y108.412 E0.01820
G1 X69.848 Y107.986 E0.01523
G1 X69.595 Y107.431 E0.01913
G1 X69.362 Y106.717 E0.02354
G1 X69.216 Y106.071 E0.02077
G1 X69.145 Y105.550 E0.01648
G1 X69.103 Y104.877 E0.02115
G1 X69.112 Y94.989 E0.31004
G1 X69.164 Y94.277 E0.02238
G1 X69.204 Y94.002 E0.00871
G1 X69.346 Y93.329 E0.02154
G1 X69.531 Y92.738 E0.01944
G1 X69.755 Y92.193 E0.01847
G1 X70.041 Y91.653 E0.01914
G1 X70.243 Y91.328 E0.01201
G1 X70.552 Y90.897 E0.01661
G1 X70.907 Y90.481 E0.01715
G1 X71.329 Y90.063 E0.01864
G1 X71.841 Y89.649 E0.02063
G1 X72.103 Y89.920 F7200.000
G1 X72.299 Y89.784 E0.00748 F2100.000
G1 X72.912 Y89.422 E0.02231
G1 X73.448 Y89.178 E0.01846
G1 X74.032 Y88.974 E0.01941
G1 X74.375 Y88.881 E0.01113
G1 X74.947 Y88.771 E0.01827
G1 X76.191 Y88.670 E0.03915
G1 X98.895 Y87.288 E0.71319
G1 X99.769 Y87.259 E0.02741
G1 X100.355 Y87.259 E0.01836
G1 X101.209 Y87.290 E0.02680
G1 X102.430 Y87.404 E0.03846
G1 X103.845 Y87.633 E0.04494
G1 X104.908 Y87.874 E0.03418
G1 X106.133 Y88.232 E0.04000
G1 X107.309 Y88.655 E0.03921
G1 X108.138 Y89.014 E0.02833
G1 X108.839 Y89.349 E0.02434
G1 X109.698 Y89.812 E0.03062
G1 X110.568 Y90.334 E0.03180
G1 X111.115 Y90.695 E0.02055
G1 X112.380 Y91.646 E0.04962
G1 X113.502 Y92.636 E0.04693
G1 X114.236 Y93.369 E0.03252
G1 X115.056 Y94.293 E0.03872
G1 X115.473 Y94.813 E0.02091
G1 X115.958 Y95.470 E0.02558
G1 X116.402 Y96.114 E0.02453
G1 X116.922 Y96.966 E0.03128
G1 X117.266 Y97.656 E0.02419
G1 X117.561 Y98.492 E0.02779
G1 X117.680 Y99.060 E0.01821
G1 X117.744 Y99.655 E0.01877
G1 X117.754 Y100.149 E0.01550
G1 X117.703 Y100.740 E0.01860
G1 X117.572 Y101.429 E0.02199
G1 X117.473 Y101.783 E0.01153
G1 X117.285 Y102.298 E0.01717
G1 X116.954 Y102.979 E0.02374
G1 X116.248 Y104.112 E0.04185
G1 X115.633 Y104.979 E0.03333
G1 X115.177 Y105.558 E0.02313
G1 X114.679 Y106.144 E0.02410
G1 X114.107 Y106.764 E0.02645
G1 X113.532 Y107.334 E0.02537
G1 X112.997 Y107.827 E0.02282
G1 X112.201 Y108.498 E0.03264
G1 X111.411 Y109.089 E0.03096
G1 X110.796 Y109.513 E0.02340
G1 X110.092 Y109.959 E0.02615
G1 X108.935 Y110.596 E0.04138
G1 X108.210 Y110.948 E0.02529
G1 X107.368 Y111.312 E0.02876
G1 X106.218 Y111.738 E0.03846
G1 X105.348 Y112.004 E0.02851
G1 X104.112 Y112.311 E0.03993
G1 X103.346 Y112.456 E0.02443
G1 X101.670 Y112.669 E0.05298
G1 X100.516 Y112.729 E0.03624
G1 X99.851 Y112.736 E0.02085
G1 X99.160 Y112.718 E0.02165
G1 X75.414 Y111.274 E0.74594
G1 X75.076 Y111.242 E0.01063
G1 X74.357 Y111.108 E0.02293
G1 X73.815 Y110.952 E0.01770
G1 X73.322 Y110.768 E0.01649
G1 X72.616 Y110.414 E0.02476
G1 X71.975 Y109.983 E0.02422
G1 X71.623 Y109.686 E0.01444
G1 X71.228 Y109.306 E0.01718
G1 X70.926 Y108.959 E0.01444
G1 X70.705 Y108.670 E0.01141
G1 X70.405 Y108.217 E0.01703
G1 X70.181 Y107.809 E0.01458
G1 X69.947 Y107.296 E0.01769
G1 X69.723 Y106.610 E0.02263
G1 X69.588 Y106.012 E0.01921
G1 X69.520 Y105.507 E0.01597
G1 X69.481 Y104.877 E0.01981
G1 X69.489 Y94.989 E0.31002
G1 X69.537 Y94.331 E0.02070
G1 X69.577 Y94.056 E0.00871
G1 X69.712 Y93.422 E0.02033
G1 X69.885 Y92.868 E0.01819
G1 X70.095 Y92.356 E0.01737
G1 X70.363 Y91.849 E0.01797
G1 X70.561 Y91.531 E0.01174
G1 X70.846 Y91.133 E0.01536
G1 X71.181 Y90.740 E0.01618
G1 X71.587 Y90.338 E0.01791
G1 X72.057 Y89.958 E0.01894
G1 X72.319 Y90.229 F7200.000
G1 X72.515 Y90.093 E0.00748 F2100.000
G1 X73.080 Y89.760 E0.02059
G1 X73.587 Y89.528 E0.01748
G1 X74.134 Y89.337 E0.01814
G1 X74.469 Y89.246 E0.01089
G1 X74.994 Y89.145 E0.01678
G1 X76.214 Y89.046 E0.03837
G1 X98.918 Y87.665 E0.71319
G1 X99.781 Y87.636 E0.02706
G1 X100.350 Y87.636 E0.01784
G1 X101.188 Y87.666 E0.02629
G1 X102.274 Y87.765 E0.03420
G1 X103.312 Y87.918 E0.03289
G1 X104.608 Y88.187 E0.04150
G1 X105.939 Y88.566 E0.04341
G1 X107.168 Y89.004 E0.04089
G1 X107.987 Y89.359 E0.02800
G1 X108.675 Y89.688 E0.02389
G1 X109.505 Y90.136 E0.02960
G1 X110.372 Y90.656 E0.03168
G1 X110.905 Y91.008 E0.02002
G1 X112.149 Y91.944 E0.04883
G1 X113.248 Y92.914 E0.04595
G1 X113.939 Y93.604 E0.03061
G1 X114.764 Y94.532 E0.03893
G1 X115.178 Y95.048 E0.02074
G1 X115.649 Y95.686 E0.02486
G1 X116.083 Y96.315 E0.02397
G1 X116.599 Y97.161 E0.03109
G1 X116.889 Y97.730 E0.02002
G1 X117.016 Y98.042 E0.01055
G1 X117.196 Y98.587 E0.01800
G1 X117.309 Y99.124 E0.01722
G1 X117.368 Y99.671 E0.01724
G1 X117.377 Y100.141 E0.01473
G1 X117.330 Y100.684 E0.01709
G1 X117.207 Y101.333 E0.02072
G1 X117.113 Y101.671 E0.01099
G1 X116.933 Y102.161 E0.01636
G1 X116.629 Y102.787 E0.02181
G1 X115.930 Y103.909 E0.04145
G1 X115.333 Y104.751 E0.03237
G1 X114.888 Y105.315 E0.02253
G1 X114.392 Y105.900 E0.02402
G1 X113.834 Y106.504 E0.02580
G1 X113.268 Y107.064 E0.02497
G1 X112.743 Y107.549 E0.02240
G1 X111.967 Y108.202 E0.03179
G1 X111.197 Y108.779 E0.03018
G1 X110.582 Y109.202 E0.02340
G1 X109.892 Y109.639 E0.02563
G1 X108.759 Y110.262 E0.04052
G1 X108.048 Y110.608 E0.02480
G1 X107.231 Y110.961 E0.02790
G1 X106.092 Y111.382 E0.03806
G1 X105.253 Y111.639 E0.02751
G1 X104.029 Y111.943 E0.03957
G1 X103.293 Y112.082 E0.02347
G1 X101.641 Y112.293 E0.05222
G1 X100.507 Y112.352 E0.03559
G1 X99.847 Y112.359 E0.02071
G1 X99.178 Y112.341 E0.02099
G1 X75.437 Y110.897 E0.74576
G1 X75.117 Y110.867 E0.01006
G1 X74.450 Y110.743 E0.02128
G1 X73.939 Y110.596 E0.01666
G1 X73.470 Y110.421 E0.01570
G1 X72.800 Y110.085 E0.02351
G1 X72.211 Y109.689 E0.02225
G1 X71.877 Y109.409 E0.01366
G1 X71.500 Y109.045 E0.01644
G1 X71.222 Y108.726 E0.01327
G1 X71.007 Y108.444 E0.01112
G1 X70.728 Y108.022 E0.01586
G1 X70.514 Y107.633 E0.01393
G1 X70.299 Y107.161 E0.01625
G1 X70.085 Y106.503 E0.02171
G1 X69.961 Y105.954 E0.01765
G1 X69.894 Y105.465 E0.01547
G1 X69.858 Y104.877 E0.01847
G1 X69.866 Y94.990 E0.31000
G1 X69.910 Y94.385 E0.01902
G1 X69.950 Y94.110 E0.00871
G1 X70.077 Y93.514 E0.01911
G1 X70.239 Y92.998 E0.01693
G1 X70.435 Y92.518 E0.01627
G1 X70.685 Y92.045 E0.01679
G1 X70.878 Y91.734 E0.01147
G1 X71.141 Y91.368 E0.01411
G1 X71.455 Y90.998 E0.01522
G1 X71.845 Y90.613 E0.01718
G1 X72.272 Y90.267 E0.01725
G1 X72.535 Y90.539 F7200.000
G1 X72.730 Y90.402 E0.00748 F2100.000
G1 X73.249 Y90.097 E0.01886
G1 X73.727 Y89.878 E0.01650
G1 X74.235 Y89.700 E0.01688
G1 X74.563 Y89.611 E0.01064
G1 X75.042 Y89.520 E0.01530
G1 X76.237 Y89.422 E0.03759
G1 X98.941 Y88.041 E0.71319
G1 X99.793 Y88.013 E0.02671
G1 X101.167 Y88.043 E0.04309
G1 X102.234 Y88.140 E0.03361
G1 X103.244 Y88.289 E0.03202
G1 X104.524 Y88.555 E0.04098
G1 X105.828 Y88.926 E0.04251
G1 X107.026 Y89.354 E0.03989
G1 X107.836 Y89.705 E0.02768
G1 X108.510 Y90.028 E0.02344
G1 X109.313 Y90.461 E0.02859
G1 X110.176 Y90.978 E0.03157
G1 X110.695 Y91.321 E0.01949
G1 X111.919 Y92.243 E0.04804
G1 X112.993 Y93.193 E0.04498
G1 X113.605 Y93.801 E0.02703
G1 X114.473 Y94.770 E0.04080
G1 X114.883 Y95.282 E0.02057
G1 X115.287 Y95.827 E0.02127
G1 X115.845 Y96.646 E0.03108
G1 X116.277 Y97.357 E0.02607
G1 X116.530 Y97.851 E0.01740
G1 X116.667 Y98.184 E0.01127
G1 X116.831 Y98.682 E0.01647
G1 X116.937 Y99.189 E0.01622
G1 X116.991 Y99.687 E0.01572
G1 X117.000 Y100.133 E0.01397
G1 X116.957 Y100.628 E0.01558
G1 X116.843 Y101.237 E0.01945
G1 X116.753 Y101.558 E0.01046
G1 X116.582 Y102.024 E0.01555
G1 X116.305 Y102.595 E0.01988
G1 X115.612 Y103.706 E0.04105
G1 X115.032 Y104.523 E0.03142
G1 X114.600 Y105.073 E0.02193
G1 X114.105 Y105.655 E0.02395
G1 X113.561 Y106.244 E0.02516
G1 X113.004 Y106.795 E0.02456
G1 X112.488 Y107.270 E0.02199
G1 X111.733 Y107.906 E0.03095
G1 X110.982 Y108.468 E0.02941
G1 X110.368 Y108.892 E0.02340
G1 X109.692 Y109.320 E0.02510
G1 X108.583 Y109.929 E0.03966
G1 X107.885 Y110.267 E0.02432
G1 X107.094 Y110.610 E0.02704
G1 X105.967 Y111.026 E0.03765
G1 X105.159 Y111.274 E0.02651
G1 X103.945 Y111.576 E0.03921
G1 X103.240 Y111.709 E0.02250
G1 X101.612 Y111.918 E0.05146
G1 X100.499 Y111.975 E0.03494
G1 X99.195 Y111.964 E0.04089
G1 X75.460 Y110.521 E0.74557
G1 X75.158 Y110.492 E0.00949
G1 X74.543 Y110.377 E0.01963
G1 X74.064 Y110.240 E0.01562
G1 X73.618 Y110.074 E0.01492
G1 X72.984 Y109.756 E0.02225
G1 X72.448 Y109.395 E0.02028
G1 X72.132 Y109.131 E0.01289
G1 X71.820 Y108.833 E0.01353
G1 X71.518 Y108.493 E0.01426
G1 X71.309 Y108.218 E0.01082
G1 X71.051 Y107.827 E0.01469
G1 X70.847 Y107.456 E0.01328
G1 X70.652 Y107.026 E0.01482
G1 X70.446 Y106.396 E0.02079
G1 X70.333 Y105.895 E0.01609
G1 X70.269 Y105.422 E0.01496
G1 X70.235 Y104.877 E0.01713
G1 X70.243 Y94.990 E0.30998
G1 X70.283 Y94.439 E0.01733
G1 X70.323 Y94.164 E0.00871
G1 X70.443 Y93.606 E0.01790
G1 X70.593 Y93.129 E0.01568
G1 X70.776 Y92.681 E0.01517
G1 X71.008 Y92.241 E0.01561
G1 X71.196 Y91.937 E0.01119
G1 X71.435 Y91.604 E0.01286
G1 X71.729 Y91.257 E0.01425
G1 X72.102 Y90.889 E0.01646
G1 X72.488 Y90.576 E0.01555
G1 F5760
G1 X72.730 Y90.402 E-0.10335
G1 F5760
G1 X73.249 Y90.097 E-0.20834
G1 F5760
G1 X73.727 Y89.878 E-0.18229
G1 F5760
G1 X74.235 Y89.700 E-0.18645
G1 F5760
G1 X74.563 Y89.611 E-0.11753
G1 F5760
G1 X75.042 Y89.520 E-0.16898
G1 F5760
G1 X76.237 Y89.422 E-0.41527
G1 F5760
G1 X80.467 Y89.165 E-1.46780
G1 E-0.15000 F2100.00000
G1 Z0.700 F7200.000
T1
G1 X72.750 Y90.848 F7200.000
G1 Z0.200 F7200.000
G1 X73.386 Y90.450 E0.02352 F2100.000
G1 X74.020 Y90.169 E0.02175
G1 X74.657 Y89.977 E0.02086
G1 X75.090 Y89.894 E0.01381
G1 X75.482 Y89.850 E0.01238
G1 X98.964 Y88.417 E0.73763
G1 X100.340 Y88.390 E0.04316
G1 X101.145 Y88.419 E0.02526
G1 X101.751 Y88.469 E0.01906
G1 X102.585 Y88.565 E0.02631
G1 X103.105 Y88.647 E0.01650
G1 X104.440 Y88.923 E0.04276
G1 X105.778 Y89.306 E0.04364
G1 X106.885 Y89.703 E0.03685
G1 X107.685 Y90.050 E0.02736
G1 X108.346 Y90.367 E0.02299
G1 X109.120 Y90.785 E0.02757
G1 X109.981 Y91.301 E0.03145
G1 X110.485 Y91.634 E0.01895
G1 X111.688 Y92.541 E0.04724
G1 X112.739 Y93.471 E0.04400
G1 X113.337 Y94.066 E0.02646
G1 X114.181 Y95.009 E0.03968
G1 X114.588 Y95.517 E0.02040
G1 X114.983 Y96.051 E0.02082
G1 X115.523 Y96.842 E0.03004
G1 X115.955 Y97.553 E0.02607
G1 X116.184 Y97.999 E0.01572
G1 X116.317 Y98.325 E0.01107
G1 X116.466 Y98.778 E0.01493
G1 X116.566 Y99.253 E0.01523
G1 X116.614 Y99.703 E0.01419
G1 X116.623 Y100.124 E0.01321
G1 X116.584 Y100.571 E0.01407
G1 X116.478 Y101.141 E0.01818
G1 X116.393 Y101.446 E0.00992
G1 X116.231 Y101.888 E0.01475
G1 X115.980 Y102.403 E0.01796
G1 X115.294 Y103.503 E0.04065
G1 X114.732 Y104.295 E0.03046
G1 X114.311 Y104.830 E0.02133
G1 X113.818 Y105.410 E0.02388
G1 X113.288 Y105.984 E0.02451
G1 X112.740 Y106.526 E0.02415
G1 X112.234 Y106.992 E0.02157
G1 X111.499 Y107.610 E0.03011
G1 X110.768 Y108.158 E0.02863
G1 X110.154 Y108.582 E0.02340
G1 X109.492 Y109.000 E0.02457
G1 X108.407 Y109.596 E0.03880
G1 X107.723 Y109.927 E0.02383
G1 X106.956 Y110.258 E0.02619
G1 X105.842 Y110.670 E0.03725
G1 X105.064 Y110.909 E0.02552
G1 X103.862 Y111.208 E0.03885
G1 X103.187 Y111.336 E0.02154
G1 X101.583 Y111.542 E0.05070
G1 X100.491 Y111.598 E0.03429
G1 X99.212 Y111.588 E0.04009
G1 X75.483 Y110.144 E0.74539
G1 X75.200 Y110.117 E0.00892
G1 X74.732 Y110.035 E0.01489
G1 X74.189 Y109.884 E0.01768
G1 X73.766 Y109.728 E0.01414
G1 X73.168 Y109.427 E0.02099
G1 X72.562 Y109.003 E0.02319
G1 X72.043 Y108.522 E0.02217
G1 X71.695 Y108.105 E0.01705
G1 X71.417 Y107.705 E0.01527
G1 X71.180 Y107.279 E0.01526
G1 X71.004 Y106.891 E0.01338
G1 X70.808 Y106.288 E0.01987
G1 X70.706 Y105.836 E0.01452
G1 X70.644 Y105.380 E0.01446
G1 X70.612 Y104.877 E0.01579
G1 X70.617 Y97.133 E0.24279
G1 X70.620 Y94.991 E0.06717
G1 X70.657 Y94.493 E0.01565
G1 X70.767 Y93.865 E0.02001
G1 X70.882 Y93.447 E0.01360
G1 X71.116 Y92.844 E0.02027
G1 X71.330 Y92.436 E0.01443
G1 X71.730 Y91.839 E0.02252
G1 X72.003 Y91.516 E0.01328
G1 X72.360 Y91.164 E0.01573
G1 X72.704 Y90.886 E0.01386
G1 X72.966 Y91.157 F7200.000
G1 X73.555 Y90.787 E0.02179 F2100.000
G1 X74.156 Y90.520 E0.02063
G1 X74.751 Y90.342 E0.01948
G1 X75.137 Y90.268 E0.01233
G1 X75.507 Y90.226 E0.01167
G1 X98.987 Y88.794 E0.73757
G1 X100.335 Y88.767 E0.04229
G1 X101.124 Y88.796 E0.02475
G1 X101.718 Y88.844 E0.01869
G1 X102.536 Y88.939 E0.02579
G1 X103.045 Y89.020 E0.01617
G1 X104.357 Y89.290 E0.04200
G1 X105.660 Y89.665 E0.04252
G1 X106.743 Y90.053 E0.03606
G1 X107.642 Y90.445 E0.03076
G1 X108.306 Y90.770 E0.02319
G1 X108.843 Y91.061 E0.01913
G1 X109.904 Y91.699 E0.03882
G1 X110.733 Y92.282 E0.03177
G1 X111.616 Y92.969 E0.03507
G1 X112.631 Y93.890 E0.04299
G1 X113.142 Y94.407 E0.02277
G1 X113.611 Y94.929 E0.02200
G1 X114.365 Y95.846 E0.03723
G1 X115.126 Y96.918 E0.04121
